X:1
T: The Duchess of Manchester's Farewell the Highlands of Scotland
C:William Marshall
R:Strathspey
Q: 128
K:Bb
M:4/4
L:1/16
|:dc|B3c B2B,2 D2F2 F2dc|BABc B2B,2 C4 C2dc|B3c B2B,2 DF3 f3g|fd3 c3d B4 B2dc|
B3c B2B,2 D2F2 F2dc|BABc B2B,2 C4 C2dc|B3c B2B,2 DF3 f3g|fd3 c3d B4 B2dc|
Bcde fdbd Bcde fdbd|Bcde fdbd c4 c2d2|Bcde fdbd Bcde f3g|fd3 c3d B4 B2dc|
Bcde fdbd Bcde fdbd|e2ge d2fd c4 c2d2|F3=E F3G F3G B3g|fd3 c3d B4 B2:|
